X: 36877
T: Shoe The Donkey
R: mazurka
M: 3/4
K: Gmajor
|:D>G|B2 B2 D>G|B2 B2 D>G|B2 B>d c>B|A4 D>F|
A2 A2 D>F|A2 A2 D>F|A2 A>c B>A|G4:|
|:D>G|B2 B2 c2|d4 e>d|c2 B2 A2|A4 D>F|
A2 A2 B2|c4 e>d|c2 B2 A2|G4:|

